X:1
T:Title
%%score ( 1 2 ) ( 3 4 )
L:1/8
Q:1/4=110
M:4/4
K:Bb
V:1 treble nm="Grand Piano, Unnamed-000"
V:2 treble 
V:3 bass nm="Choir Pad, Cleansing Fountain"
V:4 bass 
V:1
 z D [DF]2- [DF][EG] [DF]2 | [FB]2 [EB]2- [EB][EG] [DF]2 | z D [DF]2- [DF][DF][EG][DF] | %3
 [B,D]B, [A,C]6 | B,D[K:treble] [DF]2- [DF][EG] [DF]2 | [FB]2 [EB]2- [EB][EG] [DF]2 | %6
 [DB][Ec] [Fd]2- [Fd][DB] [Ec]2 | [Fd]2 [DB]6 | [DB][Ec] [Fd]2- [Fd][DB] [Ec]2 | %9
 [Fd]2 B2- B-[EB-] [GB]2 | [EG]2 [DF]2- [DF][DF][EG][DF] | [B,D]B, [A,C]6 | %12
 B,[B,D][K:treble] [DF]2- [DF][EG] [DF]2 | [FB]2 [EB]2- [EB][EG] [DF]2 | %14
 [DB][Ec] [Fd]2- [Fd][DB] [Ec]2 | [Fd]2 [DB]6- | [DB]2 z2 z4 |] %17
V:2
 B,2 z2 z4 | x8 | B,2 z2 z4 | x8 | x2[K:treble] x6 | x8 | x8 | x8 | x8 | z2 G4 z2 | x8 | x8 | %12
 x2[K:treble] x6 | x8 | x8 | x8 | x8 |] %17
V:3
 D,F, [B,,B,]2- [B,,B,][B,,B,] [B,,B,]2 | [D,F,]2 [E,G,]2- [E,G,][E,B,] [B,,B,]2 | %2
w: By~19th~Century~camp~meeting~melody * * * * *||
 D,F, [B,,B,]2- [B,,B,][B,,B,] [B,,B,]2 | F,-[D,F,] F,6 | D,F, [B,,B,]2- [B,,B,][B,,B,] [B,,B,]2 | %5
w: |||
 [D,F,]2 [E,G,]2- [E,G,][E,B,] [B,,B,]2 | [B,,B,]2 [B,,B,]2- [B,,B,][B,,B,] [F,A,]2 | %7
w: ||
 F,2 [B,,F,]6 | B,2 B,2- B,B, [F,A,]2 | [B,,B,]2 [E,B,]6 | %10
w: |||
 [E,B,]2 [B,,B,]2- [B,,B,][B,,B,] [B,,B,]2 | F,-[D,F,] F,6 | %12
w: ||
 D,F, [B,,B,]2- [B,,B,][B,,B,] [B,,B,]2 | [D,F,]2 [E,G,]2- [E,G,][E,B,] [B,,B,]2 | %14
w: ||
 [B,,B,]2 [B,,B,]2- [B,,B,][B,,B,] [F,A,]2 | F,2 [B,,F,]6- | [B,,F,]2 z2 z4 |] %17
w: |||
V:4
 B,,2 z2 z4 | x8 | B,,2 z2 z4 | .B,,2 z2 z4 | B,,2 z2 z4 | x8 | x8 | x8 | x8 | x8 | x8 | %11
 .B,,2 z2 z4 | B,,2 z2 z4 | x8 | x8 | x8 | x8 |] %17

